X: 1
T: Jug Of Punch, The
S: Paddy Carty
M: 4/4
L: 1/8
R: reel
K: Ddor
A2Dc DEFG|AG~G2 AGAF|E ~A3 cDEF|G2AG FDEc|
ADDE FDDE|~F2ED cDEG|cded cAGE| FDEc D2Dc:|
|:Adde fedf|efed cAAE|AEAB ~c3d|eaag edcA|
~d3e fedf|efed cAAB|cdcA B2AG| FDEc D2Dc:|
